archive-edit.svg

<svg fill="currentColor" viewBox="0 0 24 24"><path d="M20 10.3V8H4v13h7v-1.87l8.39-8.39c.18-.18.39-.32.61-.44M15 13H9v-1.5c0-.28.22-.5.5-.5h5c.28 0 .5.22.5.5zm6-6H3V3h18zm1.85 7.19-.98.98-2.04-2.04.98-.98c.19-.2.52-.2.72 0l1.32 1.32c.2.2.2.53 0 .72m-3.72-.36 2.04 2.04L15.04 22H13v-2.04z"/></svg>

<svg  viewBox="0 0 24 24" fill="currentColor"><path  d="M20 10.3V8H4V21H11V19.13L19.39 10.74C19.57 10.56 19.78 10.42 20 10.3M15 13H9V11.5C9 11.22 9.22 11 9.5 11H14.5C14.78 11 15 11.22 15 11.5V13M21 7H3V3H21V7M22.85 14.19L21.87 15.17L19.83 13.13L20.81 12.15C21 11.95 21.33 11.95 21.53 12.15L22.85 13.47C23.05 13.67 23.05 14 22.85 14.19M19.13 13.83L21.17 15.87L15.04 22H13V19.96L19.13 13.83Z"/></svg>
